;FLAVOR:Marlin
;TIME:251
;Filament used: 0.37482m
;Layer height: 0.25
;MINX:167
;MINY:142
;MINZ:0.3
;MAXX:183
;MAXY:158
;MAXZ:10.05
;Generated with Cura_SteamEngine 4.13.0
M140 S110
M105
M190 S110
M104 S240
M105
M109 S240
M82 ;absolute extrusion mode
G28 ;Home
G29
G1 Z15.0 F6000 ;Move the platform down 15mm
;Prime the extruder
G92 E0
G1 F200 E3
G92 E0
G92 E0
G92 E0
G1 F3600 E-5
;LAYER_COUNT:40
;LAYER:0
M107
G0 F3085.7 X167.618 Y143.176 Z0.3
;TYPE:SKIRT
G1 F3600 E0
G1 F1800 X167.946 Y142.813 E0.02441
G1 X168.329 Y142.508 E0.04883
G1 X168.757 Y142.27 E0.07327
G1 X169.217 Y142.104 E0.09767
G1 X170 Y142 E0.13707
G1 X180 Y142 E0.63597
G1 X180.488 Y142.04 E0.6604
G1 X180.963 Y142.159 E0.68483
G1 X181.412 Y142.353 E0.70923
G1 X181.824 Y142.618 E0.73367
G1 X182.187 Y142.946 E0.75808
G1 X182.492 Y143.329 E0.78251
G1 X182.73 Y143.757 E0.80694
G1 X182.896 Y144.217 E0.83134
G1 X183 Y145 E0.87075
G1 X183 Y155 E1.36965
G1 X182.96 Y155.488 E1.39408
G1 X182.841 Y155.963 E1.41851
G1 X182.647 Y156.412 E1.44291
G1 X182.382 Y156.824 E1.46735
G1 X182.054 Y157.187 E1.49176
G1 X181.671 Y157.492 E1.51618
G1 X181.243 Y157.73 E1.54062
G1 X180.783 Y157.896 E1.56501
G1 X180 Y158 E1.60442
G1 X170 Y158 E2.10332
G1 X169.512 Y157.96 E2.12775
G1 X169.037 Y157.841 E2.15218
G1 X168.588 Y157.647 E2.17658
G1 X168.176 Y157.382 E2.20102
G1 X167.813 Y157.054 E2.22543
G1 X167.508 Y156.671 E2.24986
G1 X167.27 Y156.243 E2.27429
G1 X167.104 Y155.783 E2.29869
G1 X167 Y155 E2.3381
G1 X167 Y145 E2.837
G1 X167.04 Y144.512 E2.86143
G1 X167.159 Y144.037 E2.88586
G1 X167.336 Y143.627 E2.90814
G0 F1620 X167.353 Y143.588
G0 X167.618 Y143.176
G0 F3085.7 X168.015 Y143.321
G1 F1800 X168.338 Y143 E2.93085
G1 X168.713 Y142.741 E2.95359
G1 X169.127 Y142.551 E2.97632
G1 X169.568 Y142.436 E2.99905
G1 X170 Y142.4 E3.02068
G1 X180 Y142.4 E3.51958
G1 X180.454 Y142.44 E3.54232
G1 X180.894 Y142.558 E3.56505
G1 X181.306 Y142.752 E3.58777
G1 X181.679 Y143.015 E3.61054
G1 X182 Y143.338 E3.63326
G1 X182.259 Y143.713 E3.65599
G1 X182.449 Y144.127 E3.67872
G1 X182.564 Y144.568 E3.70146
G1 X182.6 Y145 E3.72309
G1 X182.6 Y155 E4.22199
G1 X182.56 Y155.454 E4.24473
G1 X182.442 Y155.894 E4.26745
G1 X182.248 Y156.306 E4.29017
G1 X181.985 Y156.679 E4.31294
G1 X181.662 Y157 E4.33566
G1 X181.287 Y157.259 E4.3584
G1 X180.873 Y157.449 E4.38112
G1 X180.432 Y157.564 E4.40386
G1 X180 Y157.6 E4.42549
G1 X170 Y157.6 E4.92439
G1 X169.546 Y157.56 E4.94713
G1 X169.106 Y157.442 E4.96986
G1 X168.694 Y157.248 E4.99258
G1 X168.321 Y156.985 E5.01534
G1 X168 Y156.662 E5.03806
G1 X167.741 Y156.287 E5.0608
G1 X167.551 Y155.873 E5.08353
G1 X167.436 Y155.432 E5.10626
G1 X167.4 Y155 E5.12789
G1 X167.4 Y145 E5.62679
G1 X167.44 Y144.546 E5.64953
G1 X167.558 Y144.106 E5.67226
G1 X167.72 Y143.762 E5.69123
G0 F1620 X167.752 Y143.694
G0 X168.015 Y143.321
G0 F3085.7 X168.151 Y143.809
G1 F1800 X168.41 Y143.48 E5.71212
G1 X168.727 Y143.206 E5.73302
G1 X169.09 Y142.997 E5.75392
G1 X169.487 Y142.861 E5.77486
G1 X170 Y142.8 E5.80063
G1 X180 Y142.8 E6.29953
G1 X180.417 Y142.84 E6.32043
G1 X180.819 Y142.958 E6.34133
G1 X181.191 Y143.151 E6.36224
G1 X181.52 Y143.41 E6.38313
G1 X181.794 Y143.727 E6.40404
G1 X182.003 Y144.09 E6.42493
G1 X182.139 Y144.487 E6.44587
G1 X182.2 Y145 E6.47164
G1 X182.2 Y155 E6.97055
G1 X182.16 Y155.417 E6.99145
G1 X182.042 Y155.819 E7.01235
G1 X181.849 Y156.191 E7.03326
G1 X181.59 Y156.52 E7.05415
G1 X181.273 Y156.794 E7.07505
G1 X180.91 Y157.003 E7.09595
G1 X180.513 Y157.139 E7.11688
G1 X180 Y157.2 E7.14266
G1 X170 Y157.2 E7.64156
G1 X169.583 Y157.16 E7.66246
G1 X169.181 Y157.042 E7.68336
G1 X168.809 Y156.849 E7.70427
G1 X168.48 Y156.59 E7.72516
G1 X168.206 Y156.273 E7.74606
G1 X167.997 Y155.91 E7.76696
G1 X167.861 Y155.513 E7.7879
G1 X167.8 Y155 E7.81367
G1 X167.8 Y145 E8.31257
G1 X167.84 Y144.583 E8.33347
G1 X167.927 Y144.289 E8.34877
G0 F1620 X167.958 Y144.181
G0 X168.151 Y143.809
G0 F3085.7 X168.548 Y143.936
G1 F1800 X168.803 Y143.655 E8.3677
G1 X169.112 Y143.435 E8.38663
G1 X169.459 Y143.283 E8.40553
G1 X170 Y143.2 E8.43283
G1 X180 Y143.2 E8.93173
G1 X180.377 Y143.24 E8.95065
G1 X180.737 Y143.358 E8.96955
G1 X181.064 Y143.548 E8.98842
G1 X181.345 Y143.803 E9.00735
G1 X181.565 Y144.112 E9.02627
G1 X181.717 Y144.459 E9.04517
G1 X181.8 Y145 E9.07248
G1 X181.8 Y155 E9.57138
G1 X181.76 Y155.377 E9.59029
G1 X181.642 Y155.737 E9.6092
G1 X181.452 Y156.064 E9.62806
G1 X181.197 Y156.345 E9.64699
G1 X180.888 Y156.565 E9.66592
G1 X180.541 Y156.717 E9.68482
G1 X180 Y156.8 E9.71213
G1 X170 Y156.8 E10.21103
G1 X169.623 Y156.76 E10.22994
G1 X169.263 Y156.642 E10.24884
G1 X168.936 Y156.452 E10.26771
G1 X168.655 Y156.197 E10.28664
G1 X168.435 Y155.888 E10.30557
G1 X168.283 Y155.541 E10.32447
G1 X168.2 Y155 E10.35177
G1 X168.2 Y145 E10.85067
G1 X168.24 Y144.623 E10.86959
G1 X168.31 Y144.409 E10.88082
G0 F1620 X168.358 Y144.263
G0 X168.548 Y143.936
G0 F3085.7 X168.945 Y144.079
G1 F1800 X169.193 Y143.856 E10.89746
G1 X169.487 Y143.697 E10.91414
G1 X170 Y143.6 E10.94018
G1 X180 Y143.6 E11.43908
G1 X180.332 Y143.64 E11.45577
G1 X180.644 Y143.757 E11.47239
G1 X180.921 Y143.945 E11.48909
G1 X181.144 Y144.193 E11.50573
G1 X181.303 Y144.487 E11.52241
G1 X181.4 Y145 E11.54846
G1 X181.4 Y155 E12.04736
G1 X181.36 Y155.332 E12.06404
G1 X181.243 Y155.644 E12.08067
G1 X181.055 Y155.921 E12.09737
G1 X180.807 Y156.144 E12.11401
G1 X180.513 Y156.303 E12.13068
G1 X180 Y156.4 E12.15673
G1 X170 Y156.4 E12.65563
G1 X169.668 Y156.36 E12.67231
G1 X169.356 Y156.243 E12.68894
G1 X169.079 Y156.055 E12.70564
G1 X168.856 Y155.807 E12.72228
G1 X168.697 Y155.513 E12.73896
G1 X168.6 Y155 E12.765
G1 X168.6 Y145 E13.2639
G1 X168.64 Y144.668 E13.28059
G1 X168.688 Y144.541 E13.28736
G0 F1620 X168.757 Y144.356
G0 X168.945 Y144.079
G0 F3085.7 X169.156 Y144.464
G1 F1800 X169.339 Y144.249 E13.30145
G1 X169.575 Y144.095 E13.31551
G1 X170 Y144 E13.33723
G1 X180 Y144 E13.83613
G1 X180.279 Y144.04 E13.8502
G1 X180.536 Y144.156 E13.86426
G1 X180.751 Y144.339 E13.87835
G1 X180.905 Y144.575 E13.89241
G1 X181 Y145 E13.91414
G1 X181 Y155 E14.41304
G1 X180.96 Y155.279 E14.4271
G1 X180.844 Y155.536 E14.44117
G1 X180.661 Y155.751 E14.45525
G1 X180.425 Y155.905 E14.46931
G1 X180 Y156 E14.49104
G1 X170 Y156 E14.98994
G1 X169.721 Y155.96 E15.004
G1 X169.464 Y155.844 E15.01807
G1 X169.249 Y155.661 E15.03215
G1 X169.095 Y155.425 E15.04621
G1 X169 Y155 E15.06794
G1 X169 Y145 E15.56684
G1 X169.005 Y144.97 E15.56836
G0 F1620 X169.04 Y144.721
G0 X169.156 Y144.464
G0 F3085.7 X169.553 Y144.599
G1 F1800 X169.726 Y144.466 E15.57925
G1 X170 Y144.4 E15.59331
G1 X180 Y144.4 E16.09221
G1 X180.215 Y144.44 E16.10312
G1 X180.401 Y144.553 E16.11398
G1 X180.534 Y144.726 E16.12486
G1 X180.6 Y145 E16.13893
G1 X180.6 Y155 E16.63783
G1 X180.56 Y155.215 E16.64874
G1 X180.447 Y155.401 E16.6596
G1 X180.274 Y155.534 E16.67048
G1 X180 Y155.6 E16.68454
G1 X170 Y155.6 E17.18345
G1 X169.785 Y155.56 E17.19436
G1 X169.599 Y155.447 E17.20521
G1 X169.466 Y155.274 E17.2161
G1 X169.4 Y155 E17.23016
G1 X169.4 Y145.097 E17.72422
G0 F1620 X169.4 Y145
G0 X169.44 Y144.785
G0 X169.553 Y144.599
G0 F3085.7 X169.839 Y144.881
G1 F1800 X170 Y144.8 E17.73322
G1 X180 Y144.8 E18.23212
G1 X180.119 Y144.839 E18.23837
G1 X180.2 Y145 E18.24736
G1 X180.2 Y155 E18.74626
G1 X180.161 Y155.119 E18.75251
G1 X180 Y155.2 E18.7615
G1 X170 Y155.2 E19.2604
G1 X169.881 Y155.161 E19.26665
G1 X169.8 Y155 E19.27564
G1 X169.8 Y145.407 E19.75424
G0 F1620 X169.8 Y145
G0 X169.839 Y144.881
G1 F3600 E14.75424
;MESH:test_cube_10mm-Body.stl
G0 F3085.7 X170.614 Y145.614
G0 X179.33 Y154.33
G1 F3600 E19.75424
G0 F3085.7 X179.8 Y154.8
;TYPE:WALL-OUTER
G1 F1800 X170.2 Y154.8 E20.23318
G1 X170.2 Y145.2 E20.71213
G1 X179.8 Y145.2 E21.19107
G1 X179.8 Y154.268 E21.64348
G0 F1620 X179.8 Y154.8
G0 F3085.7 X179.6 Y154.8
G0 X179.36 Y154.36
G0 X179.4 Y154.4
;TYPE:WALL-INNER
G1 F1800 X170.6 Y154.4 E22.08251
G1 X170.6 Y145.6 E22.52155
G1 X179.4 Y145.6 E22.96058
G1 X179.4 Y153.868 E23.37307
G0 F1620 X179.4 Y154.4
G0 F3085.7 X179.01 Y154.01
;TYPE:SKIN
G1 F1800 X170.99 Y154.01 E23.77319
G1 X170.99 Y145.99 E24.17331
G1 X179.01 Y145.99 E24.57343
G1 X179.01 Y153.478 E24.94701
G0 F1620 X179.01 Y154.01
G0 F3085.7 X178.829 Y146.585
G1 F1800 X178.414 Y146.17 E24.97629
G0 F3085.7 X177.848 Y146.17
G1 F1800 X178.829 Y147.151 E25.0455
G0 F3085.7 X178.829 Y147.716
G1 F1800 X177.282 Y146.17 E25.15462
G0 F3085.7 X176.717 Y146.17
G1 F1800 X178.829 Y148.282 E25.30363
G0 F3085.7 X178.829 Y148.848
G1 F1800 X176.151 Y146.17 E25.49258
G0 F3085.7 X175.585 Y146.17
G1 F1800 X178.829 Y149.413 E25.72142
G0 F3085.7 X178.829 Y149.979
G1 F1800 X175.02 Y146.17 E25.99017
G0 F3085.7 X174.454 Y146.17
G1 F1800 X178.829 Y150.545 E26.29885
G0 F3085.7 X178.829 Y151.11
G1 F1800 X173.888 Y146.17 E26.64743
G0 F3085.7 X173.323 Y146.17
G1 F1800 X178.829 Y151.676 E27.03591
G0 F3085.7 X178.829 Y152.242
G1 F1800 X172.757 Y146.17 E27.46432
G0 F3085.7 X172.191 Y146.17
G1 F1800 X178.829 Y152.807 E27.93263
G0 F3085.7 X178.829 Y153.373
G1 F1800 X171.626 Y146.17 E28.44084
G0 F3085.7 X171.169 Y146.279
G1 F1800 X178.719 Y153.829 E28.97353
G0 F3085.7 X178.154 Y153.829
G1 F1800 X171.169 Y146.844 E29.46636
G0 F3085.7 X171.169 Y147.41
G1 F1800 X177.588 Y153.829 E29.91926
G0 F3085.7 X177.022 Y153.829
G1 F1800 X171.169 Y147.976 E30.33222
G0 F3085.7 X171.169 Y148.541
G1 F1800 X176.457 Y153.829 E30.70532
G0 F3085.7 X175.891 Y153.829
G1 F1800 X171.169 Y149.107 E31.03848
G0 F3085.7 X171.169 Y149.673
G1 F1800 X175.325 Y153.829 E31.33171
G0 F3085.7 X174.76 Y153.829
G1 F1800 X171.169 Y150.238 E31.58507
G0 F3085.7 X171.169 Y150.804
G1 F1800 X174.194 Y153.829 E31.7985
G0 F3085.7 X173.628 Y153.829
G1 F1800 X171.169 Y151.37 E31.972
G0 F3085.7 X171.169 Y151.936
G1 F1800 X173.062 Y153.829 E32.10556
G0 F3085.7 X172.497 Y153.829
G1 F1800 X171.169 Y152.501 E32.19926
G0 F3085.7 X171.169 Y153.067
G1 F1800 X171.931 Y153.829 E32.25302
G0 F3085.7 X171.365 Y153.829
G1 F1800 X171.169 Y153.633 E32.26685
;MESH:NONMESH
G0 F600 X171.169 Y153.633 Z0.55
G0 F3085.7 X170.67 Y145.67
G0 X170.6 Y145.6
;TIME_ELAPSED:29.110570
;LAYER:1
;TYPE:WALL-INNER
;MESH:test_cube_10mm-Body.stl
G1 F3300 X179.4 Y145.6 E32.63271
G1 X179.4 Y154.4 E32.99857
G1 X170.6 Y154.4 E33.36443
G1 X170.6 Y146.24 E33.70369
G0 F2970 X170.6 Y145.6
G0 F5142.9 X170.2 Y145.2
;TYPE:WALL-OUTER
G1 F2700 X179.8 Y145.2 E34.10281
G1 X179.8 Y154.8 E34.50193
G1 X170.2 Y154.8 E34.90105
G1 X170.2 Y145.84 E35.27357
G0 F2430 X170.2 Y145.2
G0 F5142.9 X170.4 Y145.2
G0 X170.64 Y145.64
G0 X170.99 Y145.99
;TYPE:SKIN
G1 F1950 X179.01 Y145.99 E35.607
G1 X179.01 Y154.01 E35.94043
G1 X170.99 Y154.01 E36.27386
G1 X170.99 Y146.63 E36.58069
G0 F1755 X170.99 Y145.99
G0 F5142.9 X171.169 Y146.745
G1 F1950 X171.745 Y146.169 E36.61456
G0 F5142.9 X172.311 Y146.169
G1 F1950 X171.169 Y147.311 E36.6817
G0 F5142.9 X171.169 Y147.877
G1 F1950 X172.877 Y146.169 E36.78212
G0 F5142.9 X173.442 Y146.169
G1 F1950 X171.169 Y148.442 E36.91577
G0 F5142.9 X171.169 Y149.008
G1 F1950 X174.008 Y146.169 E37.08269
G0 F5142.9 X174.574 Y146.169
G1 F1950 X171.169 Y149.574 E37.28289
G0 F5142.9 X171.169 Y150.139
G1 F1950 X175.139 Y146.169 E37.51631
G0 F5142.9 X175.705 Y146.169
G1 F1950 X171.169 Y150.705 E37.78301
G0 F5142.9 X171.169 Y151.271
G1 F1950 X176.271 Y146.169 E38.08299
G0 F5142.9 X176.836 Y146.169
G1 F1950 X171.169 Y151.837 E38.41622
G0 F5142.9 X171.169 Y152.402
G1 F1950 X177.402 Y146.169 E38.78269
G0 F5142.9 X177.968 Y146.169
G1 F1950 X171.169 Y152.968 E39.18245
G0 F5142.9 X171.169 Y153.534
G1 F1950 X178.533 Y146.169 E39.61545
G0 F5142.9 X178.829 Y146.439
G1 F1950 X171.438 Y153.83 E40.05002
G0 F5142.9 X172.004 Y153.83
G1 F1950 X178.829 Y147.005 E40.4513
G0 F5142.9 X178.829 Y147.571
G1 F1950 X172.57 Y153.83 E40.8193
G0 F5142.9 X173.135 Y153.83
G1 F1950 X178.829 Y148.136 E41.15409
G0 F5142.9 X178.829 Y148.702
G1 F1950 X173.701 Y153.83 E41.4556
G0 F5142.9 X174.267 Y153.83
G1 F1950 X178.829 Y149.268 E41.72382
G0 F5142.9 X178.829 Y149.833
G1 F1950 X174.832 Y153.83 E41.95883
G0 F5142.9 X175.398 Y153.83
G1 F1950 X178.829 Y150.399 E42.16056
G0 F5142.9 X178.829 Y150.965
G1 F1950 X175.964 Y153.83 E42.32901
G0 F5142.9 X176.529 Y153.83
G1 F1950 X178.829 Y151.53 E42.46424
G0 F5142.9 X178.829 Y152.096
G1 F1950 X177.095 Y153.83 E42.5662
G0 F5142.9 X177.661 Y153.83
G1 F1950 X178.829 Y152.662 E42.63487
G0 F5142.9 X178.829 Y153.227
G1 F1950 X178.226 Y153.83 E42.67033
G1 X178.156 Y153.9
;MESH:NONMESH
G0 F600 X178.156 Y153.9 Z0.8
G0 F5142.9 X179.33 Y154.33
G0 X179.4 Y154.4
;TIME_ELAPSED:36.877606
;LAYER:2
;TYPE:WALL-INNER
;MESH:test_cube_10mm-Body.stl
G1 F4800 X170.6 Y154.4 E43.03619
G1 X170.6 Y145.6 E43.40205
G1 X179.4 Y145.6 E43.76791
G1 X179.4 Y153.76 E44.10716
G0 F4320 X179.4 Y154.4
G0 F7200 X179.8 Y154.8
;TYPE:WALL-OUTER
G1 F3600 X170.2 Y154.8 E44.50628
G1 X170.2 Y145.2 E44.90541
G1 X179.8 Y145.2 E45.30453
G1 X179.8 Y154.16 E45.67704
G0 F3240 X179.8 Y154.8
G0 F7200 X179.6 Y154.8
G0 X179.36 Y154.36
G0 X179.01 Y154.01
;TYPE:SKIN
G1 F2100 X170.99 Y154.01 E46.01047
G1 X170.99 Y145.99 E46.34391
G1 X179.01 Y145.99 E46.67734
G1 X179.01 Y153.37 E46.98416
G0 F1890 X179.01 Y154.01
G0 F7200 X178.829 Y146.585
G1 F2100 X178.414 Y146.17 E47.00857
G0 F7200 X177.848 Y146.17
G1 F2100 X178.829 Y147.151 E47.06624
G0 F7200 X178.829 Y147.716
G1 F2100 X177.282 Y146.17 E47.15717
G0 F7200 X176.717 Y146.17
G1 F2100 X178.829 Y148.282 E47.28135
G0 F7200 X178.829 Y148.848
G1 F2100 X176.151 Y146.17 E47.43881
G0 F7200 X175.585 Y146.17
G1 F2100 X178.829 Y149.413 E47.62951
G0 F7200 X178.829 Y149.979
G1 F2100 X175.02 Y146.17 E47.85347
G0 F7200 X174.454 Y146.17
G1 F2100 X178.829 Y150.545 E48.1107
G0 F7200 X178.829 Y151.11
G1 F2100 X173.888 Y146.17 E48.40118
G0 F7200 X173.323 Y146.17
G1 F2100 X178.829 Y151.676 E48.72491
G0 F7200 X178.829 Y152.242
G1 F2100 X172.757 Y146.17 E49.08192
G0 F7200 X172.191 Y146.17
G1 F2100 X178.829 Y152.807 E49.47218
G0 F7200 X178.829 Y153.373
G1 F2100 X171.626 Y146.17 E49.89569
G0 F7200 X171.169 Y146.279
G1 F2100 X178.719 Y153.829 E50.3396
G0 F7200 X178.154 Y153.829
G1 F2100 X171.169 Y146.844 E50.75029
G0 F7200 X171.169 Y147.41
G1 F2100 X177.588 Y153.829 E51.12771
G0 F7200 X177.022 Y153.829
G1 F2100 X171.169 Y147.976 E51.47184
G0 F7200 X171.169 Y148.541
G1 F2100 X176.457 Y153.829 E51.78276
G0 F7200 X175.891 Y153.829
G1 F2100 X171.169 Y149.107 E52.06039
G0 F7200 X171.169 Y149.673
G1 F2100 X175.325 Y153.829 E52.30475
G0 F7200 X174.76 Y153.829
G1 F2100 X171.169 Y150.238 E52.51588
G0 F7200 X171.169 Y150.804
G1 F2100 X174.194 Y153.829 E52.69374
G0 F7200 X173.628 Y153.829
G1 F2100 X171.169 Y151.37 E52.83832
G0 F7200 X171.169 Y151.936
G1 F2100 X173.062 Y153.829 E52.94962
G0 F7200 X172.497 Y153.829
G1 F2100 X171.169 Y152.501 E53.02771
G0 F7200 X171.169 Y153.067
G1 F2100 X171.931 Y153.829 E53.07251
G0 F7200 X171.365 Y153.829
G1 F2100 X171.169 Y153.633 E53.08403
;MESH:NONMESH
G0 F600 X171.169 Y153.633 Z1.05
G0 F7200 X171.1 Y146.1
;TIME_ELAPSED:44.053231
;LAYER:3
;TYPE:FILL
;MESH:test_cube_10mm-Body.stl
G1 F2648.9 X178.9 Y146.1 E53.40832
G1 X178.9 Y153.9 E53.7326
G1 X171.1 Y153.9 E54.05689
G1 X171.1 Y146.74 E54.35457
G0 F2384 X171.1 Y146.1
G0 F7200 X171.6 Y146.6
G1 F2648.9 X178.4 Y146.6 E54.63728
G1 X178.4 Y153.4 E54.91999
G1 X171.6 Y153.4 E55.2027
G1 X171.6 Y147.24 E55.45881
G0 F2384 X171.6 Y146.6
G0 F7200 X172.1 Y147.1
G1 F2648.9 X177.9 Y147.1 E55.69994
G1 X177.9 Y152.9 E55.94108
G1 X172.1 Y152.9 E56.18221
G1 X172.1 Y147.74 E56.39674
G0 F2384 X172.1 Y147.1
G0 F7200 X172.6 Y147.6
G1 F2648.9 X177.4 Y147.6 E56.5963
G1 X177.4 Y152.4 E56.79586
G1 X172.6 Y152.4 E56.99542
G1 X172.6 Y148.24 E57.16838
G0 F2384 X172.6 Y147.6
G0 F7200 X173.1 Y148.1
G1 F2648.9 X176.9 Y148.1 E57.32636
G1 X176.9 Y151.9 E57.48435
G1 X173.1 Y151.9 E57.64233
G1 X173.1 Y148.74 E57.77371
G0 F2384 X173.1 Y148.1
G0 F7200 X173.6 Y148.6
G1 F2648.9 X176.4 Y148.6 E57.89012
G1 X176.4 Y151.4 E58.00653
G1 X173.6 Y151.4 E58.12294
G1 X173.6 Y149.222 E58.21349
G0 F2384 X173.6 Y148.6
G0 F7200 X174.1 Y149.1
G1 F2648.9 X175.9 Y149.1 E58.28833
G1 X175.9 Y150.9 E58.36316
G1 X174.1 Y150.9 E58.438
G1 X174.1 Y149.5 E58.4962
G0 F2384 X174.1 Y149.1
G0 F7200 X174.6 Y149.6
